bernoullicharts/arctan_x_flajolet__mean.svg

<?xml version="1.0" encoding="utf-8" standalone="no"?>
<!DOCTYPE svg PUBLIC "-//W3C//DTD SVG 1.1//EN"
  "http://www.w3.org/Graphics/SVG/1.1/DTD/svg11.dtd">
<!-- Created with matplotlib (https://matplotlib.org/) -->
<svg height="345.6pt" version="1.1" viewBox="0 0 460.8 345.6" width="460.8pt" xmlns="http://www.w3.org/2000/svg" xmlns:xlink="http://www.w3.org/1999/xlink">
 <defs>
  <style type="text/css">
*{stroke-linecap:butt;stroke-linejoin:round;}
  </style>
 </defs>
 <g id="figure_1">
  <g id="patch_1">
   <path d="M 0 345.6 
L 460.8 345.6 
L 460.8 0 
L 0 0 
z
" style="fill:#ffffff;"/>
  </g>
  <g id="axes_1">
   <g id="patch_2">
    <path d="M 57.6 307.584 
L 414.72 307.584 
L 414.72 41.472 
L 57.6 41.472 
z
" style="fill:#ffffff;"/>
   </g>
   <g id="matplotlib.axis_1">
    <g id="xtick_1">
     <g id="line2d_1">
      <defs>
       <path d="M 0 0 
L 0 3.5 
" id="m48c28c64b5" style="stroke:#000000;stroke-width:0.8;"/>
      </defs>
      <g>
       <use style="stroke:#000000;stroke-width:0.8;" x="73.800255" xlink:href="#m48c28c64b5" y="307.584"/>
      </g>
     </g>
     <g id="text_1">
      <text style="font-family:DejaVu Sans;font-size:10px;font-style:normal;font-weight:normal;text-anchor:middle;" transform="rotate(-0, 73.800255, 322.182437)" x="73.800255" y="322.182437">0.0</text>
     </g>
    </g>
    <g id="xtick_2">
     <g id="line2d_2">
      <g>
       <use style="stroke:#000000;stroke-width:0.8;" x="138.744153" xlink:href="#m48c28c64b5" y="307.584"/>
      </g>
     </g>
     <g id="text_2">
      <text style="font-family:DejaVu Sans;font-size:10px;font-style:normal;font-weight:normal;text-anchor:middle;" transform="rotate(-0, 138.744153, 322.182437)" x="138.744153" y="322.182437">0.2</text>
     </g>
    </g>
    <g id="xtick_3">
     <g id="line2d_3">
      <g>
       <use style="stroke:#000000;stroke-width:0.8;" x="203.688051" xlink:href="#m48c28c64b5" y="307.584"/>
      </g>
     </g>
     <g id="text_3">
      <text style="font-family:DejaVu Sans;font-size:10px;font-style:normal;font-weight:normal;text-anchor:middle;" transform="rotate(-0, 203.688051, 322.182437)" x="203.688051" y="322.182437">0.4</text>
     </g>
    </g>
    <g id="xtick_4">
     <g id="line2d_4">
      <g>
       <use style="stroke:#000000;stroke-width:0.8;" x="268.631949" xlink:href="#m48c28c64b5" y="307.584"/>
      </g>
     </g>
     <g id="text_4">
      <text style="font-family:DejaVu Sans;font-size:10px;font-style:normal;font-weight:normal;text-anchor:middle;" transform="rotate(-0, 268.631949, 322.182437)" x="268.631949" y="322.182437">0.6</text>
     </g>
    </g>
    <g id="xtick_5">
     <g id="line2d_5">
      <g>
       <use style="stroke:#000000;stroke-width:0.8;" x="333.575847" xlink:href="#m48c28c64b5" y="307.584"/>
      </g>
     </g>
     <g id="text_5">
      <text style="font-family:DejaVu Sans;font-size:10px;font-style:normal;font-weight:normal;text-anchor:middle;" transform="rotate(-0, 333.575847, 322.182437)" x="333.575847" y="322.182437">0.8</text>
     </g>
    </g>
    <g id="xtick_6">
     <g id="line2d_6">
      <g>
       <use style="stroke:#000000;stroke-width:0.8;" x="398.519745" xlink:href="#m48c28c64b5" y="307.584"/>
      </g>
     </g>
     <g id="text_6">
      <text style="font-family:DejaVu Sans;font-size:10px;font-style:normal;font-weight:normal;text-anchor:middle;" transform="rotate(-0, 398.519745, 322.182437)" x="398.519745" y="322.182437">1.0</text>
     </g>
    </g>
    <g id="text_7">
     <text style="font-family:DejaVu Sans;font-size:10px;font-style:normal;font-weight:normal;text-anchor:middle;" transform="rotate(-0, 236.16, 335.860562)" x="236.16" y="335.860562">Input Coin's Heads Probability (λ)</text>
    </g>
   </g>
   <g id="matplotlib.axis_2">
    <g id="ytick_1">
     <g id="line2d_7">
      <defs>
       <path d="M 0 0 
L -3.5 0 
" id="m1ed743c3a3" style="stroke:#000000;stroke-width:0.8;"/>
      </defs>
      <g>
       <use style="stroke:#000000;stroke-width:0.8;" x="57.6" xlink:href="#m1ed743c3a3" y="295.488"/>
      </g>
     </g>
     <g id="text_8">
      <text style="font-family:DejaVu Sans;font-size:10px;font-style:normal;font-weight:normal;text-anchor:end;" transform="rotate(-0, 50.6, 299.287219)" x="50.6" y="299.287219">0.0</text>
     </g>
    </g>
    <g id="ytick_2">
     <g id="line2d_8">
      <g>
       <use style="stroke:#000000;stroke-width:0.8;" x="57.6" xlink:href="#m1ed743c3a3" y="265.473112"/>
      </g>
     </g>
     <g id="text_9">
      <text style="font-family:DejaVu Sans;font-size:10px;font-style:normal;font-weight:normal;text-anchor:end;" transform="rotate(-0, 50.6, 269.27233)" x="50.6" y="269.27233">0.1</text>
     </g>
    </g>
    <g id="ytick_3">
     <g id="line2d_9">
      <g>
       <use style="stroke:#000000;stroke-width:0.8;" x="57.6" xlink:href="#m1ed743c3a3" y="235.458223"/>
      </g>
     </g>
     <g id="text_10">
      <text style="font-family:DejaVu Sans;font-size:10px;font-style:normal;font-weight:normal;text-anchor:end;" transform="rotate(-0, 50.6, 239.257442)" x="50.6" y="239.257442">0.2</text>
     </g>
    </g>
    <g id="ytick_4">
     <g id="line2d_10">
      <g>
       <use style="stroke:#000000;stroke-width:0.8;" x="57.6" xlink:href="#m1ed743c3a3" y="205.443335"/>
      </g>
     </g>
     <g id="text_11">
      <text style="font-family:DejaVu Sans;font-size:10px;font-style:normal;font-weight:normal;text-anchor:end;" transform="rotate(-0, 50.6, 209.242554)" x="50.6" y="209.242554">0.3</text>
     </g>
    </g>
    <g id="ytick_5">
     <g id="line2d_11">
      <g>
       <use style="stroke:#000000;stroke-width:0.8;" x="57.6" xlink:href="#m1ed743c3a3" y="175.428447"/>
      </g>
     </g>
     <g id="text_12">
      <text style="font-family:DejaVu Sans;font-size:10px;font-style:normal;font-weight:normal;text-anchor:end;" transform="rotate(-0, 50.6, 179.227665)" x="50.6" y="179.227665">0.4</text>
     </g>
    </g>
    <g id="ytick_6">
     <g id="line2d_12">
      <g>
       <use style="stroke:#000000;stroke-width:0.8;" x="57.6" xlink:href="#m1ed743c3a3" y="145.413558"/>
      </g>
     </g>
     <g id="text_13">
      <text style="font-family:DejaVu Sans;font-size:10px;font-style:normal;font-weight:normal;text-anchor:end;" transform="rotate(-0, 50.6, 149.212777)" x="50.6" y="149.212777">0.5</text>
     </g>
    </g>
    <g id="ytick_7">
     <g id="line2d_13">
      <g>
       <use style="stroke:#000000;stroke-width:0.8;" x="57.6" xlink:href="#m1ed743c3a3" y="115.39867"/>
      </g>
     </g>
     <g id="text_14">
      <text style="font-family:DejaVu Sans;font-size:10px;font-style:normal;font-weight:normal;text-anchor:end;" transform="rotate(-0, 50.6, 119.197889)" x="50.6" y="119.197889">0.6</text>
     </g>
    </g>
    <g id="ytick_8">
     <g id="line2d_14">
      <g>
       <use style="stroke:#000000;stroke-width:0.8;" x="57.6" xlink:href="#m1ed743c3a3" y="85.383782"/>
      </g>
     </g>
     <g id="text_15">
      <text style="font-family:DejaVu Sans;font-size:10px;font-style:normal;font-weight:normal;text-anchor:end;" transform="rotate(-0, 50.6, 89.183)" x="50.6" y="89.183">0.7</text>
     </g>
    </g>
    <g id="ytick_9">
     <g id="line2d_15">
      <g>
       <use style="stroke:#000000;stroke-width:0.8;" x="57.6" xlink:href="#m1ed743c3a3" y="55.368893"/>
      </g>
     </g>
     <g id="text_16">
      <text style="font-family:DejaVu Sans;font-size:10px;font-style:normal;font-weight:normal;text-anchor:end;" transform="rotate(-0, 50.6, 59.168112)" x="50.6" y="59.168112">0.8</text>
     </g>
    </g>
    <g id="text_17">
     <text style="font-family:DejaVu Sans;font-size:10px;font-style:normal;font-weight:normal;text-anchor:middle;" transform="rotate(-90, 28.617187, 174.528)" x="28.617187" y="174.528">Simulated Mean / Function Value</text>
    </g>
   </g>
   <g id="line2d_16">
    <path clip-path="url(#p4c97b84e02)" d="M 73.832727 295.457985 
L 77.112066 292.426891 
L 80.391405 289.396421 
L 83.670744 286.367192 
L 86.950083 283.339821 
L 90.229421 280.314921 
L 93.50876 277.293102 
L 96.788099 274.274971 
L 100.067438 271.261132 
L 103.346777 268.25218 
L 106.626116 265.248707 
L 109.905455 262.251299 
L 113.184793 259.260531 
L 116.464132 256.276976 
L 119.743471 253.301192 
L 123.02281 250.333734 
L 126.302149 247.375143 
L 129.581488 244.425953 
L 132.860826 241.486684 
L 136.140165 238.557848 
L 139.419504 235.639944 
L 142.698843 232.73346 
L 145.978182 229.83887 
L 149.257521 226.956636 
L 152.53686 224.087208 
L 155.816198 221.231021 
L 159.095537 218.388498 
L 162.374876 215.560046 
L 165.654215 212.746061 
L 168.933554 209.946922 
L 172.212893 207.162994 
L 175.492231 204.394631 
L 178.77157 201.642167 
L 182.050909 198.905926 
L 185.330248 196.186215 
L 188.609587 193.483328 
L 191.888926 190.797543 
L 195.168264 188.129124 
L 198.447603 185.478321 
L 201.726942 182.84537 
L 205.006281 180.230492 
L 208.28562 177.633894 
L 211.564959 175.05577 
L 214.844298 172.4963 
L 218.123636 169.95565 
L 221.402975 167.433973 
L 224.682314 164.93141 
L 227.961653 162.448088 
L 231.240992 159.984122 
L 234.520331 157.539615 
L 237.799669 155.114658 
L 241.079008 152.70933 
L 244.358347 150.323699 
L 247.637686 147.957821 
L 250.917025 145.611742 
L 254.196364 143.285499 
L 257.475702 140.979116 
L 260.755041 138.692609 
L 264.03438 136.425984 
L 267.313719 134.179239 
L 270.593058 131.952361 
L 273.872397 129.745329 
L 277.151736 127.558116 
L 280.431074 125.390685 
L 283.710413 123.242991 
L 286.989752 121.114982 
L 290.269091 119.006602 
L 293.54843 116.917784 
L 296.827769 114.848456 
L 300.107107 112.798542 
L 303.386446 110.767959 
L 306.665785 108.756616 
L 309.945124 106.76442 
L 313.224463 104.791273 
L 316.503802 102.837069 
L 319.78314 100.901702 
L 323.062479 98.985058 
L 326.341818 97.087021 
L 329.621157 95.207472 
L 332.900496 93.346286 
L 336.179835 91.503337 
L 339.459174 89.678495 
L 342.738512 87.871627 
L 346.017851 86.082599 
L 349.29719 84.311272 
L 352.576529 82.557507 
L 355.855868 80.821162 
L 359.135207 79.102093 
L 362.414545 77.400154 
L 365.693884 75.715199 
L 368.973223 74.04708 
L 372.252562 72.395646 
L 375.531901 70.760747 
L 378.81124 69.142232 
L 382.090579 67.539948 
L 385.369917 65.953742 
L 388.649256 64.383461 
L 391.928595 62.828951 
L 395.207934 61.290058 
L 398.487273 59.766626 
" style="fill:none;stroke:#1f77b4;stroke-linecap:square;stroke-width:1.5;"/>
   </g>
   <g id="line2d_17">
    <path clip-path="url(#p4c97b84e02)" d="M 73.832727 295.488 
L 77.112066 294.287404 
L 80.391405 290.08532 
L 83.670744 286.483533 
L 86.950083 281.681151 
L 90.229421 280.480556 
L 93.50876 277.479067 
L 96.788099 273.87728 
L 100.067438 270.875792 
L 103.346777 272.676685 
L 106.626116 263.071921 
L 109.905455 255.26805 
L 113.184793 255.26805 
L 116.464132 256.468645 
L 119.743471 247.464179 
L 123.02281 252.266561 
L 126.302149 245.663285 
L 129.581488 234.857926 
L 132.860826 243.262094 
L 136.140165 240.860903 
L 139.419504 234.857926 
L 142.698843 233.65733 
L 145.978182 224.652864 
L 149.257521 226.453757 
L 152.53686 221.651375 
L 155.816198 213.247206 
L 159.095537 210.846015 
L 162.374876 212.646908 
L 165.654215 209.645419 
L 168.933554 209.645419 
L 172.212893 206.043633 
L 175.492231 209.645419 
L 178.77157 201.841548 
L 182.050909 204.242739 
L 185.330248 182.63202 
L 188.609587 186.233806 
L 191.888926 195.238273 
L 195.168264 182.63202 
L 198.447603 180.230829 
L 201.726942 180.831127 
L 205.006281 182.031722 
L 208.28562 179.630531 
L 211.564959 168.825171 
L 214.844298 158.620109 
L 218.123636 179.030233 
L 221.402975 179.630531 
L 224.682314 164.022789 
L 227.961653 165.223385 
L 231.240992 160.421002 
L 234.520331 165.223385 
L 237.799669 164.623087 
L 241.079008 141.811772 
L 244.358347 158.019811 
L 247.637686 144.212963 
L 250.917025 142.412069 
L 254.196364 143.612665 
L 257.475702 138.810283 
L 260.755041 135.808794 
L 264.03438 135.808794 
L 267.313719 140.010878 
L 270.593058 135.208496 
L 273.872397 133.407603 
L 277.151736 126.20403 
L 280.431074 134.608199 
L 283.710413 117.799861 
L 286.989752 120.80135 
L 290.269091 122.001945 
L 293.54843 123.802839 
L 296.827769 113.597777 
L 300.107107 122.001945 
L 303.386446 120.201052 
L 306.665785 97.990035 
L 309.945124 116.599266 
L 313.224463 109.99599 
L 316.503802 97.389737 
L 319.78314 96.189141 
L 323.062479 109.395692 
L 326.341818 102.192119 
L 329.621157 100.391226 
L 332.900496 100.991524 
L 336.179835 86.584377 
L 339.459174 82.982591 
L 342.738512 92.587355 
L 346.017851 81.181697 
L 349.29719 82.382293 
L 352.576529 84.183186 
L 355.855868 84.183186 
L 359.135207 79.380804 
L 362.414545 82.982591 
L 365.693884 73.978124 
L 368.973223 79.981102 
L 372.252562 64.37336 
L 375.531901 72.777529 
L 378.81124 67.975146 
L 382.090579 65.573955 
L 385.369917 62.572467 
L 388.649256 53.568 
L 391.928595 61.371871 
L 395.207934 56.569489 
L 398.487273 70.376337 
" style="fill:none;stroke:#ff7f0e;stroke-linecap:square;stroke-width:1.5;"/>
   </g>
   <g id="patch_3">
    <path d="M 57.6 307.584 
L 57.6 41.472 
" style="fill:none;stroke:#000000;stroke-linecap:square;stroke-linejoin:miter;stroke-width:0.8;"/>
   </g>
   <g id="patch_4">
    <path d="M 414.72 307.584 
L 414.72 41.472 
" style="fill:none;stroke:#000000;stroke-linecap:square;stroke-linejoin:miter;stroke-width:0.8;"/>
   </g>
   <g id="patch_5">
    <path d="M 57.6 307.584 
L 414.72 307.584 
" style="fill:none;stroke:#000000;stroke-linecap:square;stroke-linejoin:miter;stroke-width:0.8;"/>
   </g>
   <g id="patch_6">
    <path d="M 57.6 41.472 
L 414.72 41.472 
" style="fill:none;stroke:#000000;stroke-linecap:square;stroke-linejoin:miter;stroke-width:0.8;"/>
   </g>
   <g id="text_18">
    <text style="font-family:DejaVu Sans;font-size:12px;font-style:normal;font-weight:normal;text-anchor:middle;" transform="rotate(-0, 236.16, 35.472)" x="236.16" y="35.472">Expected Value in arctan(x) (Flajolet) Algorithm</text>
   </g>
   <g id="legend_1">
    <g id="patch_7">
     <path d="M 64.6 78.82825 
L 286.560938 78.82825 
Q 288.560938 78.82825 288.560938 76.82825 
L 288.560938 48.472 
Q 288.560938 46.472 286.560938 46.472 
L 64.6 46.472 
Q 62.6 46.472 62.6 48.472 
L 62.6 76.82825 
Q 62.6 78.82825 64.6 78.82825 
z
" style="fill:#ffffff;opacity:0.8;stroke:#cccccc;stroke-linejoin:miter;"/>
    </g>
    <g id="line2d_18">
     <path d="M 66.6 54.570437 
L 86.6 54.570437 
" style="fill:none;stroke:#1f77b4;stroke-linecap:square;stroke-width:1.5;"/>
    </g>
    <g id="line2d_19"/>
    <g id="text_19">
     <text style="font-family:DejaVu Sans;font-size:10px;font-style:normal;font-weight:normal;text-anchor:start;" transform="rotate(-0, 94.6, 58.070437)" x="94.6" y="58.070437">arctan(x)</text>
    </g>
    <g id="line2d_20">
     <path d="M 66.6 69.248562 
L 86.6 69.248562 
" style="fill:none;stroke:#ff7f0e;stroke-linecap:square;stroke-width:1.5;"/>
    </g>
    <g id="line2d_21"/>
    <g id="text_20">
     <text style="font-family:DejaVu Sans;font-size:10px;font-style:normal;font-weight:normal;text-anchor:start;" transform="rotate(-0, 94.6, 72.748562)" x="94.6" y="72.748562">Simulated Mean of arctan(x) (Flajolet)</text>
    </g>
   </g>
  </g>
 </g>
 <defs>
  <clipPath id="p4c97b84e02">
   <rect height="266.112" width="357.12" x="57.6" y="41.472"/>
  </clipPath>
 </defs>
</svg>

<svg height="460.8" viewBox="0 0 460.8 345.6" width="614.4" xmlns="http://www.w3.org/2000/svg" xmlns:xlink="http://www.w3.org/1999/xlink"><defs><style>*{stroke-linecap:butt;stroke-linejoin:round}</style></defs><g id="figure_1"><path d="M0 345.6h460.8V0H0z" fill="#fff" id="patch_1"/><g id="axes_1"><path d="M57.6 307.584h357.12V41.472H57.6z" fill="#fff" id="patch_2"/><g id="matplotlib.axis_1"><g id="xtick_1"><g id="line2d_1"><defs><path d="M0 0v3.5" id="m48c28c64b5" stroke="#000" stroke-width=".8"/></defs><use x="73.8" xlink:href="#m48c28c64b5" y="307.584" stroke="#000" stroke-width=".8"/></g><text x="73.8" y="322.182" font-family="DejaVu Sans" font-size="10" font-weight="400" text-anchor="middle" id="text_1">0.0</text></g><g id="xtick_2"><use x="138.744" xlink:href="#m48c28c64b5" y="307.584" stroke="#000" stroke-width=".8" id="line2d_2"/><text x="138.744" y="322.182" font-family="DejaVu Sans" font-size="10" font-weight="400" text-anchor="middle" id="text_2">0.2</text></g><g id="xtick_3"><use x="203.688" xlink:href="#m48c28c64b5" y="307.584" stroke="#000" stroke-width=".8" id="line2d_3"/><text x="203.688" y="322.182" font-family="DejaVu Sans" font-size="10" font-weight="400" text-anchor="middle" id="text_3">0.4</text></g><g id="xtick_4"><use x="268.632" xlink:href="#m48c28c64b5" y="307.584" stroke="#000" stroke-width=".8" id="line2d_4"/><text x="268.632" y="322.182" font-family="DejaVu Sans" font-size="10" font-weight="400" text-anchor="middle" id="text_4">0.6</text></g><g id="xtick_5"><use x="333.576" xlink:href="#m48c28c64b5" y="307.584" stroke="#000" stroke-width=".8" id="line2d_5"/><text x="333.576" y="322.182" font-family="DejaVu Sans" font-size="10" font-weight="400" text-anchor="middle" id="text_5">0.8</text></g><g id="xtick_6"><use x="398.52" xlink:href="#m48c28c64b5" y="307.584" stroke="#000" stroke-width=".8" id="line2d_6"/><text x="398.52" y="322.182" font-family="DejaVu Sans" font-size="10" font-weight="400" text-anchor="middle" id="text_6">1.0</text></g><text x="236.16" y="335.861" font-family="DejaVu Sans" font-size="10" font-weight="400" text-anchor="middle" id="text_7">Input Coin&apos;s Heads Probability (λ)</text></g><g id="matplotlib.axis_2"><g id="ytick_1"><g id="line2d_7"><defs><path d="M0 0h-3.5" id="m1ed743c3a3" stroke="#000" stroke-width=".8"/></defs><use x="57.6" xlink:href="#m1ed743c3a3" y="295.488" stroke="#000" stroke-width=".8"/></g><text x="50.6" y="299.287" font-family="DejaVu Sans" font-size="10" font-weight="400" text-anchor="end" id="text_8">0.0</text></g><g id="ytick_2"><use x="57.6" xlink:href="#m1ed743c3a3" y="265.473" stroke="#000" stroke-width=".8" id="line2d_8"/><text x="50.6" y="269.272" font-family="DejaVu Sans" font-size="10" font-weight="400" text-anchor="end" id="text_9">0.1</text></g><g id="ytick_3"><use x="57.6" xlink:href="#m1ed743c3a3" y="235.458" stroke="#000" stroke-width=".8" id="line2d_9"/><text x="50.6" y="239.257" font-family="DejaVu Sans" font-size="10" font-weight="400" text-anchor="end" id="text_10">0.2</text></g><g id="ytick_4"><use x="57.6" xlink:href="#m1ed743c3a3" y="205.443" stroke="#000" stroke-width=".8" id="line2d_10"/><text x="50.6" y="209.243" font-family="DejaVu Sans" font-size="10" font-weight="400" text-anchor="end" id="text_11">0.3</text></g><g id="ytick_5"><use x="57.6" xlink:href="#m1ed743c3a3" y="175.428" stroke="#000" stroke-width=".8" id="line2d_11"/><text x="50.6" y="179.228" font-family="DejaVu Sans" font-size="10" font-weight="400" text-anchor="end" id="text_12">0.4</text></g><g id="ytick_6"><use x="57.6" xlink:href="#m1ed743c3a3" y="145.414" stroke="#000" stroke-width=".8" id="line2d_12"/><text x="50.6" y="149.213" font-family="DejaVu Sans" font-size="10" font-weight="400" text-anchor="end" id="text_13">0.5</text></g><g id="ytick_7"><use x="57.6" xlink:href="#m1ed743c3a3" y="115.399" stroke="#000" stroke-width=".8" id="line2d_13"/><text x="50.6" y="119.198" font-family="DejaVu Sans" font-size="10" font-weight="400" text-anchor="end" id="text_14">0.6</text></g><g id="ytick_8"><use x="57.6" xlink:href="#m1ed743c3a3" y="85.384" stroke="#000" stroke-width=".8" id="line2d_14"/><text x="50.6" y="89.183" font-family="DejaVu Sans" font-size="10" font-weight="400" text-anchor="end" id="text_15">0.7</text></g><g id="ytick_9"><use x="57.6" xlink:href="#m1ed743c3a3" y="55.369" stroke="#000" stroke-width=".8" id="line2d_15"/><text x="50.6" y="59.168" font-family="DejaVu Sans" font-size="10" font-weight="400" text-anchor="end" id="text_16">0.8</text></g><text transform="rotate(-90 28.617 174.528)" x="28.617" y="174.528" font-family="DejaVu Sans" font-size="10" font-weight="400" text-anchor="middle" id="text_17">Simulated Mean / Function Value</text></g><path clip-path="url(#p4c97b84e02)" d="M73.833 295.458l3.28-3.031 3.278-3.03 3.28-3.03 3.28-3.027 3.278-3.025 3.28-3.022 3.28-3.018 3.278-3.014 3.28-3.009 3.28-3.003 3.278-2.998 3.28-2.99 3.28-2.984 3.278-2.976 3.28-2.967 3.28-2.959 3.278-2.949 3.28-2.94 3.28-2.928 3.279-2.918 3.279-2.907 3.28-2.894 3.279-2.882 3.279-2.87 3.28-2.856 3.279-2.843 3.279-2.828 3.28-2.814 3.279-2.8 3.279-2.783 3.28-2.768 3.279-2.753 3.279-2.736 3.28-2.72 3.279-2.703 3.279-2.685 3.28-2.669 3.279-2.65 3.279-2.634 3.28-2.615 3.279-2.596 3.279-2.578 3.28-2.56 3.279-2.54 3.279-2.522 3.28-2.503 3.279-2.483 3.279-2.464 3.28-2.444 3.279-2.425 3.279-2.406 3.28-2.385 3.279-2.366 3.279-2.346 3.28-2.327 3.279-2.306 3.279-2.286 3.28-2.267 3.279-2.247 3.28-2.227 3.278-2.207 3.28-2.187 3.28-2.167 3.278-2.148 3.28-2.128 3.28-2.108 3.278-2.09 3.28-2.069 3.28-2.05 3.278-2.03 3.28-2.011 3.28-1.993 3.278-1.973 3.28-1.954 3.28-1.935 3.278-1.917 3.28-1.898 3.28-1.88 3.278-1.86 3.28-1.844 3.28-1.825 3.279-1.806 3.279-1.79 3.28-1.77 3.279-1.754 3.279-1.737 3.28-1.719 3.279-1.702 3.279-1.685 3.28-1.668 3.279-1.651 3.279-1.635 3.28-1.619 3.279-1.602 3.279-1.586 3.28-1.57 3.279-1.555 3.279-1.539 3.28-1.523" fill="none" stroke="#1f77b4" stroke-linecap="square" stroke-width="1.5" id="line2d_16"/><path clip-path="url(#p4c97b84e02)" d="M73.833 295.488l3.28-1.2 3.278-4.203 3.28-3.601 3.28-4.803 3.278-1.2 3.28-3.002 3.28-3.602 3.278-3.001 3.28 1.8 3.28-9.604 3.278-7.804h3.28l3.28 1.2 3.278-9.004 3.28 4.803 3.28-6.604 3.278-10.805 3.28 8.404 3.28-2.401 3.279-6.003 3.279-1.2 3.28-9.005 3.279 1.8 3.279-4.802 3.28-8.404 3.279-2.401 3.279 1.8 3.28-3h3.279l3.279-3.602 3.28 3.601 3.279-7.803 3.279 2.4 3.28-21.61 3.279 3.602 3.279 9.004 3.28-12.606 3.279-2.401 3.279.6 3.28 1.2 3.279-2.4 3.279-10.806 3.28-10.205 3.279 20.41 3.279.6 3.28-15.607 3.279 1.2 3.279-4.802 3.28 4.802 3.279-.6 3.279-22.811 3.28 16.208 3.279-13.807 3.279-1.8 3.28 1.2 3.279-4.803 3.279-3.001h3.28l3.279 4.202 3.28-4.803 3.278-1.8 3.28-7.204 3.28 8.404 3.278-16.808 3.28 3.001 3.28 1.2 3.278 1.802 3.28-10.205 3.28 8.404 3.278-1.8 3.28-22.212 3.28 18.61 3.278-6.604 3.28-12.606 3.28-1.2 3.278 13.206 3.28-7.204 3.28-1.8 3.278.6 3.28-14.408 3.28-3.601 3.279 9.604 3.279-11.405 3.28 1.2 3.279 1.801h3.279l3.28-4.802 3.279 3.602 3.279-9.005 3.28 6.003 3.279-15.608 3.279 8.405 3.28-4.803 3.279-2.401 3.279-3.002 3.28-9.004 3.279 7.804 3.279-4.803 3.28 13.807" fill="none" stroke="#ff7f0e" stroke-linecap="square" stroke-width="1.5" id="line2d_17"/><path d="M57.6 307.584V41.472" fill="none" stroke="#000" stroke-linecap="square" stroke-width=".8" id="patch_3"/><path d="M414.72 307.584V41.472" fill="none" stroke="#000" stroke-linecap="square" stroke-width=".8" id="patch_4"/><path d="M57.6 307.584h357.12" fill="none" stroke="#000" stroke-linecap="square" stroke-width=".8" id="patch_5"/><path d="M57.6 41.472h357.12" fill="none" stroke="#000" stroke-linecap="square" stroke-width=".8" id="patch_6"/><text x="236.16" y="35.472" font-family="DejaVu Sans" font-size="12" font-weight="400" text-anchor="middle" id="text_18">Expected Value in arctan(x) (Flajolet) Algorithm</text><g id="legend_1"><path d="M64.6 78.828h221.96q2 0 2-2V48.472q0-2-2-2H64.6q-2 0-2 2v28.356q0 2 2 2z" fill="#fff" opacity=".8" stroke="#ccc" id="patch_7"/><path d="M66.6 54.57h20" fill="none" stroke="#1f77b4" stroke-linecap="square" stroke-width="1.5" id="line2d_18"/><text x="94.6" y="58.07" font-family="DejaVu Sans" font-size="10" font-weight="400" id="text_19">arctan(x)</text><path d="M66.6 69.249h20" fill="none" stroke="#ff7f0e" stroke-linecap="square" stroke-width="1.5" id="line2d_20"/><text x="94.6" y="72.749" font-family="DejaVu Sans" font-size="10" font-weight="400" id="text_20">Simulated Mean of arctan(x) (Flajolet)</text></g></g></g><defs><clipPath id="p4c97b84e02"><path d="M57.6 41.472h357.12v266.112H57.6z"/></clipPath></defs></svg>
